img/svg-icons/hrc-icons_twitter.svg

<?xml version="1.0" encoding="utf-8"?>
<!-- Generator: Adobe Illustrator 19.1.1, SVG Export Plug-In . SVG Version: 6.00 Build 0)  -->
<svg version="1.1" id="icons" xmlns="http://www.w3.org/2000/svg" xmlns:xlink="http://www.w3.org/1999/xlink" x="0px" y="0px"
	 viewBox="0 0 16 16" style="enable-background:new 0 0 16 16;" xml:space="preserve">
<g id="arrow-large-r">
</g>
<g id="link-external">
</g>
<g id="link-list">
</g>
<path id="twitter_2_" style="fill-rule:evenodd;clip-rule:evenodd;fill:#FFFFFF;" d="M10.9,1.6c1.3,0,1.9,0.4,2.6,1
	c0.5,0,1.3-0.4,1.7-0.6c0.1-0.1,0.3-0.1,0.4-0.2c-0.2,0.6-0.6,1.1-1.1,1.5c-0.1,0.1-0.2,0.2-0.4,0.3c0,0,0,0,0,0
	c0.7,0,1.3-0.3,1.9-0.5v0c-0.3,0.5-0.7,0.9-1.1,1.3c-0.2,0.1-0.3,0.3-0.5,0.4c0,0.7,0,1.5-0.2,2.1c-0.8,3.7-3,6.1-6.4,7.2
	c-1.2,0.4-3.2,0.5-4.6,0.2c-0.7-0.2-1.3-0.4-1.9-0.6c-0.3-0.1-0.6-0.3-0.9-0.5C0.2,13.1,0.1,13,0,13c0.3,0,0.7,0.1,1,0
	C1.4,13,1.7,13,2,12.9c0.7-0.2,1.4-0.4,2-0.7c0.3-0.2,0.7-0.3,0.9-0.6c-0.4,0-0.7-0.1-1-0.2c-1.1-0.4-1.7-1.1-2.1-2.1
	c0.3,0,1.2,0.1,1.5-0.1C2.8,9.3,2.5,9,2.2,8.9C1.3,8.3,0.6,7.5,0.6,6.1C0.7,6.1,0.9,6.2,1,6.3c0.2,0.1,0.4,0.1,0.7,0.2
	c0.1,0,0.3,0.1,0.4,0h0C1.9,6.3,1.7,6.2,1.5,6C0.9,5.3,0.4,4.2,0.8,3C0.8,2.7,1,2.4,1.1,2.2l0,0c0.1,0.1,0.2,0.2,0.3,0.3
	c0.3,0.3,0.6,0.7,1,0.9c1.2,0.9,2.3,1.5,4,1.9c0.4,0.1,0.9,0.2,1.5,0.2C7.7,5.1,7.8,4.4,7.9,4c0.3-1,0.9-1.8,1.9-2.2
	c0.2-0.1,0.5-0.2,0.7-0.2C10.6,1.6,10.7,1.6,10.9,1.6z"/>
<g id="download">
</g>
<g id="info">
</g>
<g id="close">
</g>
<g id="dismiss">
</g>
<g id="search">
</g>
<g id="filter-open">
</g>
<g id="filter-close">
</g>
<g id="fail">
</g>
<g id="pass">
</g>
<g id="smart-t-fail">
</g>
<g id="smart-r-fail">
</g>
<g id="smart-a-fail">
</g>
<g id="smart-m-fail">
</g>
<g id="smart-s-fail">
	<g id="smart-s-fail_1_">
	</g>
</g>
<g id="smart-t">
</g>
<g id="smart-r">
</g>
<g id="smart-a">
</g>
<g id="smart-m">
</g>
<g id="smart-s">
	<g id="smart-s_1_">
	</g>
</g>
<g id="hrc-logo">
</g>
</svg>

<svg xmlns="http://www.w3.org/2000/svg" viewBox="0 0 16 16"><title>hrc-icons</title><path d="M10.9,1.6a3.4,3.4,0,0,1,2.6,1A5.4,5.4,0,0,0,15.2,2l0.4-.2a3.3,3.3,0,0,1-1.1,1.5l-0.4.3h0A6.1,6.1,0,0,0,16,3.1h0a5.3,5.3,0,0,1-1.1,1.3l-0.5.4a9.2,9.2,0,0,1-.2,2.1,9.1,9.1,0,0,1-6.4,7.2,9.9,9.9,0,0,1-4.6.2l-1.9-.6-0.9-.5L0,13H2a6.8,6.8,0,0,0,2-.7,3.7,3.7,0,0,0,.9-0.6l-1-.2A3.3,3.3,0,0,1,1.8,9.4a3.3,3.3,0,0,0,1.5-.1,2.4,2.4,0,0,1-1.1-.4A3.1,3.1,0,0,1,.6,6.1L1,6.3,1.7,6.4H2.1L1.5,6A3.3,3.3,0,0,1,.8,3a3.8,3.8,0,0,1,.4-0.8h0L1.4,2.5l1,0.9a9.7,9.7,0,0,0,4,1.9L7.9,5.5A3,3,0,0,1,7.9,4,3.2,3.2,0,0,1,9.8,1.8l0.7-.2h0.4Z" style="fill:#fff;fill-rule:evenodd"/></svg>
